X:1
T:Title
%%score { ( 1 3 ) | 2 }
L:1/8
M:4/4
K:D
V:1 treble nm="Grand Piano"
V:3 treble 
V:2 bass 
V:1
 z4 z2[Q:1/4=100] DE | F2 F[EG] [FA]2 [Ae][Ad] | d4 B2 dB | [FA]2 [DF]2 [CG]2 [EA]2 | z4 E2 z2 | %5
 F2 F[EG] [FA][DF][EG][FA] | B2 GB [^Ge]2 [Bd]2 | [Ac]2 [AB][Ac] [Ad]2 BG |[M:7/8] F2 [CE]2 D3 | %9
[M:1/4] cd |[M:4/4] e2 G2 c2 Bc | [Fd]2 [DF]2 [FA]2 [=F^G][^FA] | B2 ^AB [^Ge]2 [EGd]2 | %13
 [EGd]4 [EGc]2 [GB][Gc] | [Fd]2 [DFA]2 [A,DF]2 [A,EG][DFA] | %15
 [DGB]2 [B,EG]2[K:bass] [G,B,E]2 [E,B,D]2 | [E,A,C][E,B,D][CE][K:treble][DF] [EG][FA][GB][Ac] | %17
[M:3/4] [Ge]4 [Fd]2 |] %18
V:2
 z4 z2 [D,F,][D,G,D] | [D,A,D]2 [D,A,D][D,A,] [D,D]2 [F,=C][F,C] | [G,B,G]4 [G,DG]2 [G,B,G][G,DG] | %3
 [D,D]2 [D,A,]2 [E,A,]2 [C,A,]2 | [D,A,D]2 [F,A,D]2 [A,C]2 [F,A,][E,A,C] | %5
 [D,A,D]2 [D,A,D][D,A,] [D,D][D,A,][D,A,][D,D] | [G,DG]2 [G,B,D][G,DG][K:bass] [E,D]2 [^G,E]2 | %7
 [A,E]2 [G,E][G,E] [F,D]2 [F,DF][G,B,E] |[M:7/8] [A,D]2 [A,,G,]2 [D,F,]3 | %9
[M:1/4][K:treble] [A,E][A,F] |[M:4/4] [A,CG]2 [A,CE]2 [A,EG]2 [A,G][A,G] | %11
 [D,A,]2 [D,A,]2 [D,D]2 [D,D][D,D] | [G,DG]2 [G,CG][G,DG][K:bass] [E,D]2 E,2 | A,,4 A,,2 A,A, | %14
 [D,A,]2 D,2 D,2 D,D, | G,,2 G,,2 G,,2 ^G,,2 | A,,A,,[A,,A,][A,,A,] [A,,A,][A,,A,][A,,A,][A,,A,] | %17
[M:3/4] [A,,A,]4 [D,A,]2 |] %18
V:3
 x8 | x8 | x8 | x8 | F2 A2 z G,DE | x8 | x8 | x8 |[M:7/8] x7 |[M:1/4] x2 |[M:4/4] x8 | x8 | x8 | %13
 x8 | x8 | x4[K:bass] x4 | x3[K:treble] x5 |[M:3/4] x6 |] %18

